local/templates/spiritfit-v3/img/vk-brands.svg

<svg width="16" height="18" viewBox="0 0 16 18" fill="none" xmlns="http://www.w3.org/2000/svg">
<path d="M1.12467 2.20454C0 3.29797 0 5.05802 0 8.57778V9.2C0 12.7198 0 14.4798 1.12467 15.5732C2.24933 16.6667 4.05968 16.6667 7.68 16.6667H8.32C11.9403 16.6667 13.7507 16.6667 14.8753 15.5732C16 14.4798 16 12.7198 16 9.2V8.57778C16 5.05802 16 3.29797 14.8753 2.20454C13.7507 1.11111 11.9403 1.11111 8.32 1.11111H7.68C4.05968 1.11111 2.24933 1.11111 1.12467 2.20454ZM2.7 5.84261H4.52668C4.58668 8.81112 5.93332 10.0685 7 10.3278V5.84261H8.72V8.40278C9.77332 8.29261 10.88 7.12594 11.2533 5.84261H12.9733C12.8326 6.50816 12.5521 7.1383 12.1495 7.69372C11.7469 8.2491 11.2308 8.71775 10.6333 9.07039C11.3004 9.39233 11.8895 9.84827 12.3619 10.408C12.8342 10.9678 13.1789 11.6187 13.3733 12.3176H11.48C11.3055 11.7105 10.9505 11.167 10.4595 10.7554C9.96846 10.3437 9.36332 10.0822 8.72 10.0037V12.3176H8.51332C4.86668 12.3176 2.78667 9.88705 2.7 5.84261Z" fill="white"/>
</svg>

<?xml version="1.0" encoding="utf-8"?>
<!-- Generator: Adobe Illustrator 25.2.3, SVG Export Plug-In . SVG Version: 6.00 Build 0)  -->
<svg version="1.1" id="Слой_1" xmlns="http://www.w3.org/2000/svg" xmlns:xlink="http://www.w3.org/1999/xlink" x="0px" y="0px"
	 viewBox="0 0 16 18" style="enable-background:new 0 0 16 18;" xml:space="preserve">
<style type="text/css">
	.st0{fill:url(#SVGID_1_);}
</style>
<linearGradient id="SVGID_1_" gradientUnits="userSpaceOnUse" x1="0" y1="8.8889" x2="16" y2="8.8889">
	<stop  offset="0" style="stop-color:#FC4000"/>
	<stop  offset="1" style="stop-color:#780AFA"/>
</linearGradient>
<path class="st0" d="M1.1,2.2C0,3.3,0,5.1,0,8.6v0.6c0,3.5,0,5.3,1.1,6.4c1.1,1.1,2.9,1.1,6.6,1.1h0.6c3.6,0,5.4,0,6.6-1.1
	C16,14.5,16,12.7,16,9.2V8.6c0-3.5,0-5.3-1.1-6.4c-1.1-1.1-2.9-1.1-6.6-1.1H7.7C4.1,1.1,2.2,1.1,1.1,2.2z M2.7,5.8h1.8
	c0.1,3,1.4,4.2,2.5,4.5V5.8h1.7v2.6c1.1-0.1,2.2-1.3,2.5-2.6H13c-0.1,0.7-0.4,1.3-0.8,1.9c-0.4,0.6-0.9,1-1.5,1.4
	c0.7,0.3,1.3,0.8,1.7,1.3c0.5,0.6,0.8,1.2,1,1.9h-1.9c-0.2-0.6-0.5-1.2-1-1.6C10,10.3,9.4,10.1,8.7,10v2.3H8.5
	C4.9,12.3,2.8,9.9,2.7,5.8z"/>
</svg>
